raw-svg/warehouse.svg

<svg fill="none" height="24" viewBox="0 0 24 24" width="24" xmlns="http://www.w3.org/2000/svg"><path clip-rule="evenodd" d="m11.2174 3.55279c.4927-.24633 1.0726-.24633 1.5652 0l7 3.49995c.5929.29643.9674.9024.9674 1.56525v11.38201c0 .4142-.3358.75-.75.75s-.75-.3358-.75-.75v-11.38201c0-.09469-.0535-.18126-.1382-.22361l-7-3.49994c-.0703-.0352-.1532-.0352-.2236-.00001l-6.99997 3.49995c-.0847.04235-.1382.12892-.1382.22361v11.38201c0 .4142-.33579.75-.75.75s-.75-.3358-.75-.75v-11.38201c0-.66285.37451-1.26882.96739-1.56525zm-4.96737 8.44721c0-.9665.7835-1.75 1.75-1.75h7.99997c.9665 0 1.75.7835 1.75 1.75v7c0 .9665-.7835 1.75-1.75 1.75h-7.99997c-.9665 0-1.75-.7835-1.75-1.75zm1.75-.25c-.13807 0-.25.1119-.25.25v1.25h8.49997v-1.25c0-.1381-.1119-.25-.25-.25zm8.24997 3h-8.49997v1.5h8.49997zm0 3h-8.49997v1.25c0 .138.11193.25.25.25h7.99997c.1381 0 .25-.112.25-.25z" fill="#000" fill-rule="evenodd"/></svg>

<svg width="24" height="24" viewBox="0 0 24 24" fill="none" xmlns="http://www.w3.org/2000/svg">
<path fill-rule="evenodd" clip-rule="evenodd" d="M11.2174 3.55279C11.7101 3.30646 12.29 3.30646 12.7826 3.55279L19.7826 7.05274C20.3755 7.34917 20.75 7.95514 20.75 8.61799V20C20.75 20.4142 20.4142 20.75 20 20.75C19.5858 20.75 19.25 20.4142 19.25 20V8.61799C19.25 8.5233 19.1965 8.43673 19.1118 8.39438L12.1118 4.89444C12.0415 4.85924 11.9586 4.85924 11.8882 4.89443L4.88823 8.39438C4.80353 8.43673 4.75003 8.5233 4.75003 8.61799V20C4.75003 20.4142 4.41424 20.75 4.00003 20.75C3.58582 20.75 3.25003 20.4142 3.25003 20V8.61799C3.25003 7.95514 3.62454 7.34917 4.21742 7.05274L11.2174 3.55279ZM6.25003 12C6.25003 11.0335 7.03353 10.25 8.00003 10.25H16C16.9665 10.25 17.75 11.0335 17.75 12V19C17.75 19.9665 16.9665 20.75 16 20.75H8.00003C7.03353 20.75 6.25003 19.9665 6.25003 19V12ZM8.00003 11.75C7.86196 11.75 7.75003 11.8619 7.75003 12V13.25H16.25V12C16.25 11.8619 16.1381 11.75 16 11.75H8.00003ZM16.25 14.75H7.75003V16.25H16.25V14.75ZM16.25 17.75H7.75003V19C7.75003 19.138 7.86196 19.25 8.00003 19.25H16C16.1381 19.25 16.25 19.138 16.25 19V17.75Z" fill="black"/>
</svg>
